images/icons/v2/timer-disabled-24.svg

<svg height="24" width="24" xmlns="http://www.w3.org/2000/svg">
  <path d="M12 21.5A7.491 7.491 0 015.723 9.907L4.648 8.831a8.989 8.989 0 0012.526 12.526l-1.081-1.08A7.45 7.45 0 0112 21.5zM21.53 21.47l-2.23-2.227a8.96 8.96 0 00-.239-10.807A1.232 1.232 0 0020 7.25 1.25 1.25 0 0018.75 6a1.232 1.232 0 00-1.186.935 8.948 8.948 0 00-4.752-1.894L14 1h-4l1.188 4.041a8.915 8.915 0 00-4.419 1.667L4.53 4.47 3.47 5.53l.872.873 2.327 2.329 4.431 4.431 1.78 1.781 4.385 4.386 1.063 1.063 2.142 2.137zm-8.66-8.661L12.5 8h-1l-.246 3.194-3.421-3.422a7.491 7.491 0 0110.4 10.4z"/>
</svg>

<svg xmlns="http://www.w3.org/2000/svg" width="24" height="24" viewBox="0 0 24 24"><title>timer-disabled-24</title><path d="M12,21.5A7.491,7.491,0,0,1,5.723,9.907L4.648,8.831A8.989,8.989,0,0,0,17.174,21.357l-1.081-1.08A7.45,7.45,0,0,1,12,21.5Z"/><path d="M21.53,21.47,19.3,19.243a8.96,8.96,0,0,0-.239-10.807A1.232,1.232,0,0,0,20,7.25,1.25,1.25,0,0,0,18.75,6a1.232,1.232,0,0,0-1.186.935,8.948,8.948,0,0,0-4.752-1.894L14,1H10l1.188,4.041A8.915,8.915,0,0,0,6.769,6.708L4.53,4.47,3.47,5.53l.872.873h0L6.669,8.732h0L11.1,13.163v0l1.78,1.781v0l4.385,4.386h0l1.063,1.063h0L20.47,22.53Zm-8.66-8.661L12.5,8h-1l-.246,3.194L7.833,7.772a7.491,7.491,0,0,1,10.4,10.4Z"/></svg>
